!!!OTL: ZWEI LIEBTEN SICH AUS REINEM SINN
!!!ARE: Europa, Mitteleuropa, Deutschland, Oberlahnkreis; Westerwald
!!!SCT: E0093G
!!!YEM: Copyright 1995, estate of Helmut Schaffrath.
**kern
*ICvox
*Ivox
*M3/4
*k[f#]
*G:
{8d
8e
8f#
=1
4g
4b
8a
16g
16b
=2
4a
8r}
{8g
8f#
8g
=3
4a
4ee
8dd
16dd
16cc
=4
4b
8r}
{8dd
8dd
8dd
=5
8.cc
16b
8a
8dd
8dd
8cc
=6
8.b
16a
8g}
{8g
8f#
8g
=7
4a
4ee
8dd
16dd
16cc
=8
4b
8r}
==
!!!AGN: erzaehlendes Volks - Lied, Sage, Liebe, Leid, Tod, Ballade ?
!!!ONB: ESAC (Essen Associative Code) Database: ERK1
!!!AMT: simple triple
!!!AIN: vox
!!!EED: Helmut Schaffrath
!!!EEV: 1.0
*-
